src/icons/haml.svg

<svg width="16" height="16" viewBox="0 0 16 16" fill="none" xmlns="http://www.w3.org/2000/svg">
<path fill-rule="evenodd" clip-rule="evenodd" d="M3 2.28699C3 2.28699 3.678 1.98699 4.227 2.00099C4.30633 2.00233 4.38167 2.01133 4.453 2.02799L6.424 5.92799L9.84 2.87999C9.84 2.87999 10.99 3.29899 11.093 3.69999L9.762 4.92399C9.75872 4.99461 9.74969 5.06484 9.735 5.13399C9.715 5.20799 9.695 5.26999 9.675 5.33299C9.655 5.39599 9.635 5.45899 9.625 5.52099C9.575 5.77099 9.585 6.01099 9.685 6.16799C9.735 6.25199 9.805 6.31499 9.905 6.37799C9.925 6.38599 9.945 6.39533 9.965 6.40599C9.995 6.42266 10.028 6.43733 10.064 6.44999L10.154 6.48199L10.263 6.51299C10.542 6.60699 10.821 6.74299 11.07 6.90999C11.329 7.06699 11.568 7.26499 11.767 7.50499C11.867 7.63099 11.957 7.76599 12.026 7.91299C12.096 8.05899 12.156 8.22599 12.166 8.39299C12.1729 8.56786 12.1314 8.74123 12.046 8.89399C11.966 9.03999 11.856 9.15499 11.737 9.25999C11.637 9.34299 11.538 9.40599 11.439 9.46799V9.47899L11.409 9.76099V9.77099L11.399 9.78199C11.319 10.002 11.189 10.21 11.009 10.367C10.831 10.524 10.601 10.617 10.372 10.649C10.153 10.68 9.924 10.659 9.715 10.618C9.50234 10.5661 9.29777 10.4853 9.107 10.378H9.097C9.08772 10.3726 9.08005 10.3649 9.07478 10.3556C9.0695 10.3463 9.06682 10.3357 9.067 10.325C9.057 10.105 9.107 9.90699 9.187 9.71899C8.73256 9.66028 8.28737 9.54436 7.862 9.37399C7.59296 9.26776 7.33857 9.12763 7.105 8.95699C7.0293 8.89688 6.95655 8.83314 6.887 8.76599L6.337 12.891C6.337 12.891 5.139 13.351 4.054 12.389L5.243 7.05899L3 2.28699ZM9.107 5.84399C9.107 5.72466 9.117 5.60899 9.137 5.49699L7.07 7.39199L6.96 8.21199C7.057 8.34799 7.19 8.46699 7.333 8.57999C7.533 8.73699 7.762 8.87299 8.001 8.98699C8.229 9.11199 8.477 9.21699 8.725 9.31999L8.728 9.32199L8.992 9.42599L9.256 9.52999C9.30603 9.42825 9.36179 9.32943 9.423 9.23399C9.47721 9.14953 9.53459 9.06714 9.595 8.98699C9.615 8.96699 9.655 8.95599 9.685 8.96699L9.705 8.97699L9.709 8.97799C9.857 9.02999 10.004 9.08199 10.152 9.12299C10.302 9.16499 10.452 9.19599 10.591 9.18599C10.7327 9.18026 10.8687 9.12907 10.979 9.03999C11.089 8.94599 11.189 8.80999 11.249 8.65299C11.249 8.64299 11.259 8.64299 11.268 8.64299C11.3058 8.67076 11.3347 8.709 11.351 8.75299L11.358 8.76799C11.4041 8.90599 11.4278 9.0505 11.428 9.19599C11.468 9.16499 11.518 9.12299 11.557 9.08099C11.647 8.98699 11.727 8.88299 11.776 8.76799C11.8294 8.64291 11.8501 8.50628 11.836 8.37099C11.816 8.13099 11.676 7.89099 11.497 7.70299C11.1194 7.32119 10.649 7.04412 10.132 6.89899L10.032 6.87799L9.913 6.84599C9.843 6.82599 9.763 6.79399 9.684 6.75199C9.51812 6.66854 9.37733 6.5426 9.276 6.38699C9.17269 6.22404 9.11406 6.03677 9.106 5.84399" fill="#F78C6C"/>
</svg>

<svg xmlns="http://www.w3.org/2000/svg" width="16" height="16" fill="none"><path fill="#F78C6C" fill-rule="evenodd" d="M3 2.287s.678-.3 1.227-.286q.119.002.226.027l1.971 3.9L9.84 2.88s1.15.419 1.253.82L9.762 4.924a1.3 1.3 0 0 1-.027.21c-.02.074-.04.136-.06.199s-.04.126-.05.188c-.05.25-.04.49.06.647.05.084.12.147.22.21q.03.012.06.028.045.025.099.044l.09.032.109.031c.279.094.558.23.807.397.259.157.498.355.697.595.1.126.19.261.259.408.07.146.13.313.14.48a.95.95 0 0 1-.12.501c-.08.146-.19.261-.309.366-.1.083-.199.146-.298.208v.011l-.03.282v.01l-.01.011c-.08.22-.21.428-.39.585-.178.157-.408.25-.637.282-.219.031-.448.01-.657-.031a2.4 2.4 0 0 1-.608-.24h-.01a.06.06 0 0 1-.03-.053c-.01-.22.04-.418.12-.606a5.438 5.438 0 0 1-1.325-.345 3.4 3.4 0 0 1-.757-.417 3 3 0 0 1-.218-.191l-.55 4.125s-1.198.46-2.283-.502l1.189-5.33zm6.107 3.557q0-.179.03-.347L7.07 7.392l-.11.82c.097.136.23.255.373.368.2.157.429.293.668.407.228.125.476.23.724.333l.003.002.264.104.264.104a3 3 0 0 1 .167-.296 4 4 0 0 1 .172-.247c.02-.02.06-.031.09-.02l.02.01.004.001c.148.052.295.104.443.145.15.042.3.073.439.063a.66.66 0 0 0 .388-.146c.11-.094.21-.23.27-.387 0-.01.01-.01.019-.01a.24.24 0 0 1 .083.11l.007.015a1.357 1.357 0 0 1 .07.428c.04-.031.09-.073.129-.115.09-.094.17-.198.219-.313a.8.8 0 0 0 .06-.397c-.02-.24-.16-.48-.339-.668a3.097 3.097 0 0 0-1.365-.804l-.1-.021-.119-.032c-.07-.02-.15-.052-.229-.094a1.05 1.05 0 0 1-.408-.365 1.1 1.1 0 0 1-.17-.543" clip-rule="evenodd"/></svg>
